X: 7
T: The Road To Lisdoonvarna
R: reel
M: 4/4
L: 1/8
K: Dmix
|:DAAG ABcA|GE(3EEE cAGE|DAAG ABcA|1 BcAG FGEF:|2 BcAG FDDd||:defd ^cAAc|BGBd ^cAAd|defd ^cAAc|1 BdAG FDD2:|2 BdAG FGEF|


Tune 249	Setting 12966

